sources/design/Outline/exclam.svg

<svg:svg xmlns:cc="http://creativecommons.org/ns#" xmlns:dc="http://purl.org/dc/elements/1.1/" xmlns:inkscape="http://www.inkscape.org/namespaces/inkscape" xmlns:rdf="http://www.w3.org/1999/02/22-rdf-syntax-ns#" xmlns:sodipodi="http://sodipodi.sourceforge.net/DTD/sodipodi-0.dtd" xmlns:svg="http://www.w3.org/2000/svg" xml:space="preserve" width="1000" height="1000" version="1.1" style="clip-rule:evenodd;fill-rule:evenodd;image-rendering:optimizeQuality;shape-rendering:geometricPrecision;text-rendering:geometricPrecision" viewBox="0 0 1000 1000" id="svg10" sodipodi:docname="exclam.svg" inkscape:version="1.0.2 (e86c870879, 2021-01-15)"><svg:metadata id="metadata14"><rdf:RDF><cc:Work rdf:about=""><dc:format>image/svg+xml</dc:format><dc:type rdf:resource="http://purl.org/dc/dcmitype/StillImage" /><dc:title /></cc:Work></rdf:RDF></svg:metadata><sodipodi:namedview pagecolor="#ffffff" bordercolor="#666666" borderopacity="1" objecttolerance="10" gridtolerance="10" guidetolerance="10" inkscape:pageopacity="0" inkscape:pageshadow="2" inkscape:window-width="1920" inkscape:window-height="1127" id="namedview12" showgrid="false" inkscape:zoom="1.356" inkscape:cx="163.59365" inkscape:cy="568.1711" inkscape:window-x="0" inkscape:window-y="0" inkscape:window-maximized="1" inkscape:current-layer="svg10" showguides="true" inkscape:guide-bbox="true" inkscape:document-rotation="0" inkscape:snap-to-guides="true" inkscape:pagecheckerboard="0"><sodipodi:guide position="0,1000" orientation="0,1" id="guide16" inkscape:label="" inkscape:locked="true" inkscape:color="rgb(0,0,255)" /><sodipodi:guide position="1763.3122,2036.1693" orientation="1000,0" id="guide18" /><sodipodi:guide position="0,200" orientation="0,1" id="guide20" inkscape:label="base" inkscape:locked="true" inkscape:color="rgb(0,0,255)" /><inkscape:grid type="xygrid" id="grid24" originx="-473.37552" originy="-489.69235" /><sodipodi:guide position="0,0" orientation="0,1" id="guide34" inkscape:label="bottom" inkscape:locked="true" inkscape:color="rgb(0,0,255)" /><sodipodi:guide position="225.05109,1693.3186" orientation="0,1" id="guide44" inkscape:label="" inkscape:locked="false" inkscape:color="rgb(0,0,255)" /><sodipodi:guide position="0,900" orientation="0,1" id="guide46" inkscape:label="" inkscape:locked="true" inkscape:color="rgb(0,0,255)" /><sodipodi:guide position="165.365,540.15933" orientation="-1,0" id="guide841" inkscape:label="width" inkscape:locked="false" inkscape:color="rgb(0,0,255)" /><sodipodi:guide position="0,1000" orientation="0,1000" id="guide860" /><sodipodi:guide position="1000,1000" orientation="1000,0" id="guide862" /><sodipodi:guide position="1000,0" orientation="0,-1000" id="guide864" /><sodipodi:guide position="0,0" orientation="-1000,0" id="guide866" /><sodipodi:guide position="74.483776,458.70206" orientation="1,0" id="guide863" /></sodipodi:namedview>
 <svg:defs id="defs4"><inkscape:path-effect effect="spiro" id="path-effect865" is_visible="true" lpeversion="1" /><inkscape:path-effect effect="fillet_chamfer" id="path-effect861" is_visible="true" lpeversion="1" satellites_param="F,0,0,1,0,7.7815187,0,1 @ F,0,0,1,0,16.824442,0,1 @ F,0,0,1,0,0,0,1 @ F,0,0,1,0,11.189945,0,1 @ F,0,0,1,0,0,0,1 @ F,0,0,1,0,17.525409,0,1 @ F,0,0,1,0,0,0,1" unit="px" method="auto" mode="F" radius="0" chamfer_steps="1" flexible="false" use_knot_distance="true" apply_no_radius="true" apply_with_radius="true" only_selected="true" hide_knots="false" /><inkscape:path-effect effect="spiro" id="path-effect863" is_visible="true" lpeversion="1" /><inkscape:path-effect effect="spiro" id="path-effect873" is_visible="true" lpeversion="1" /><inkscape:path-effect effect="spiro" id="path-effect859" is_visible="true" lpeversion="1" /><inkscape:path-effect effect="spiro" id="path-effect862" is_visible="true" lpeversion="1" /><inkscape:path-effect effect="spiro" id="path-effect1521" is_visible="true" lpeversion="1" /><inkscape:path-effect effect="spiro" id="path-effect858" is_visible="true" lpeversion="1" /><inkscape:path-effect effect="spiro" id="path-effect854" is_visible="true" lpeversion="1" />
  <svg:style type="text/css" id="style2">
   
    .fil0 {fill:#EF7F1A;fill-rule:nonzero}
   
  </svg:style>
 <inkscape:path-effect effect="spiro" id="path-effect1214" is_visible="true" lpeversion="1" /><inkscape:path-effect effect="spiro" id="path-effect1195" is_visible="true" lpeversion="1" /><inkscape:path-effect effect="spiro" id="path-effect992" is_visible="true" lpeversion="1" /><inkscape:path-effect effect="spiro" id="path-effect287" is_visible="true" lpeversion="1" /><inkscape:path-effect effect="spiro" id="path-effect1032" is_visible="true" lpeversion="1" /><inkscape:path-effect effect="spiro" id="path-effect1218" is_visible="true" lpeversion="1" /><inkscape:path-effect effect="spiro" id="path-effect309" is_visible="true" lpeversion="1" /><inkscape:path-effect effect="spiro" id="path-effect1176" is_visible="true" lpeversion="1" /><inkscape:path-effect effect="spiro" id="path-effect1026" is_visible="true" lpeversion="1" /><inkscape:path-effect effect="spiro" id="path-effect1030" is_visible="true" lpeversion="1" /></svg:defs>
 
<svg:g id="path859"><svg:path style="color:#000000;clip-rule:nonzero;fill:#1a5fb4;fill-rule:nonzero;stroke-linecap:round;stroke-linejoin:round;-inkscape-stroke:none;paint-order:fill stroke markers;shape-rendering:auto" d="M 74.732422,604.24609 C 43.868117,604.24609 15.848467999999997,618.66221 -3.324218799999997,641.0605499999999 C -22.265459999999997,663.1885 -31.212891999999997,691.1585299999999 -31.212890999999996,718.85156 C -31.212888999999997,746.5446 -22.265459999999997,774.5146199999999 -3.324218799999997,796.64258 C 15.848467000000003,819.0409199999999 43.868119,833.4570299999999 74.732422,833.4570299999999 C 105.59672,833.4570299999999 133.61442,819.0409199999999 152.78710999999998,796.64258 C 171.72834999999998,774.5146199999999 180.67773,746.54459 180.67773,718.85156 C 180.67774,691.1585299999999 171.72835,663.1885 152.78710999999998,641.0605499999999 C 133.61442,618.66221 105.59672999999998,604.2460899999999 74.73242199999999,604.2460899999999 L 74.732422,604.24609 M 74.732422,664.24609 C 85.971507,664.24609 99.00051500000001,670.48897 107.20703,680.0761699999999 C 115.64499,689.9337499999999 120.67774,704.44121 120.67773,718.85156 C 120.67773,733.2619199999999 115.64498999999999,747.76937 107.20703,757.62695 C 99.00051500000001,767.21415 85.971506,773.4570299999999 74.732422,773.4570299999999 C 63.493337,773.4570299999999 50.464329,767.2141499999999 42.257812,757.62695 C 33.819851,747.76937 28.787110000000002,733.2619199999999 28.787109,718.85156 C 28.787109,704.44121 33.81985,689.9337499999999 42.257812,680.0761699999999 C 50.464329,670.4889699999999 63.493336,664.24609 74.732422,664.24609" id="path4158" /></svg:g><svg:g id="path861"><svg:path style="color:#000000;clip-rule:nonzero;fill:#1a5fb4;fill-rule:nonzero;stroke-linecap:round;stroke-linejoin:round;-inkscape-stroke:none;paint-order:fill stroke markers;shape-rendering:auto" d="M 152.1582,73.363281 C 148.85083,73.373081 145.69356,73.741713 142.84960999999998,74.375 L 5.8242187,104.88672 C -14.143682000000002,109.33315 -27.540032,132.44128999999998 -21.736328,151.88672 C -12.665428,182.27895 -5.4817509000000015,213.23903 -0.2421875,244.51953 C 16.356132,343.61247000000003 13.181703,446.12721 -9.4414063,544.0332 C -12.200398,555.97329 -10.147788,571.1744 -0.44921875,582.1132799999999 C 9.2493509,593.05216 24.417762,596.9655 36.710937,595.45312 L 73.589844,590.91602 L 119.125,585.3125 C 141.35,582.57826 157.63138,561.43312 154.91406,539.40039 C 153.85817,530.8389 152.91184,522.26525 152.07422,513.67969 C 139.34996999999998,383.25680000000006 152.20817,250.24540000000007 189.61133,124.64648000000005 C 192.91626000000002,113.54860000000005 192.52729000000002,97.33266600000005 181.57031,85.44335900000004 C 173.35258000000002,76.52637900000005 162.08031,73.33375000000004 152.15820000000002,73.36328100000004 L 152.1582,73.363281 M 122.99023,140.26562 C 90.498582,263.57013 79.972295,392.55895 92.357422,519.50586 C 92.635298,522.35408 92.998247,525.19316 93.298828,528.03906 L 66.263672,531.36523 L 54.28125,532.83984 C 73.788249,434.77189 75.458471,333.26191 58.933594,234.60742 C 54.627447,208.89947 49.086817,183.40356 42.373047,158.21875 L 122.99023,140.26562" id="path4164" /></svg:g></svg:svg>

<svg:svg xmlns:cc="http://creativecommons.org/ns#" xmlns:dc="http://purl.org/dc/elements/1.1/" xmlns:inkscape="http://www.inkscape.org/namespaces/inkscape" xmlns:rdf="http://www.w3.org/1999/02/22-rdf-syntax-ns#" xmlns:sodipodi="http://sodipodi.sourceforge.net/DTD/sodipodi-0.dtd" xmlns:svg="http://www.w3.org/2000/svg" xml:space="preserve" width="1000" height="1000" version="1.1" style="clip-rule:evenodd;fill-rule:evenodd;image-rendering:optimizeQuality;shape-rendering:geometricPrecision;text-rendering:geometricPrecision" viewBox="0 0 1000 1000" id="svg10" sodipodi:docname="exclam.svg" inkscape:version="1.0.2 (e86c870879, 2021-01-15)"><svg:metadata id="metadata14"><rdf:RDF><cc:Work rdf:about=""><dc:format>image/svg+xml</dc:format><dc:type rdf:resource="http://purl.org/dc/dcmitype/StillImage" /><dc:title /></cc:Work></rdf:RDF></svg:metadata><sodipodi:namedview pagecolor="#ffffff" bordercolor="#666666" borderopacity="1" objecttolerance="10" gridtolerance="10" guidetolerance="10" inkscape:pageopacity="0" inkscape:pageshadow="2" inkscape:window-width="1920" inkscape:window-height="1127" id="namedview12" showgrid="false" inkscape:zoom="1.356" inkscape:cx="163.59365" inkscape:cy="568.1711" inkscape:window-x="0" inkscape:window-y="0" inkscape:window-maximized="1" inkscape:current-layer="svg10" showguides="true" inkscape:guide-bbox="true" inkscape:document-rotation="0" inkscape:snap-to-guides="true" inkscape:pagecheckerboard="0"><sodipodi:guide position="0,1000" orientation="0,1" id="guide16" inkscape:label="" inkscape:locked="true" inkscape:color="rgb(0,0,255)" /><sodipodi:guide position="1763.3122,2036.1693" orientation="1000,0" id="guide18" /><sodipodi:guide position="0,200" orientation="0,1" id="guide20" inkscape:label="base" inkscape:locked="true" inkscape:color="rgb(0,0,255)" /><inkscape:grid type="xygrid" id="grid24" originx="-473.37552" originy="-489.69235" /><sodipodi:guide position="0,0" orientation="0,1" id="guide34" inkscape:label="bottom" inkscape:locked="true" inkscape:color="rgb(0,0,255)" /><sodipodi:guide position="225.05109,1693.3186" orientation="0,1" id="guide44" inkscape:label="" inkscape:locked="false" inkscape:color="rgb(0,0,255)" /><sodipodi:guide position="0,900" orientation="0,1" id="guide46" inkscape:label="" inkscape:locked="true" inkscape:color="rgb(0,0,255)" /><sodipodi:guide position="165.365,540.15933" orientation="-1,0" id="guide841" inkscape:label="width" inkscape:locked="false" inkscape:color="rgb(0,0,255)" /><sodipodi:guide position="0,1000" orientation="0,1000" id="guide860" /><sodipodi:guide position="1000,1000" orientation="1000,0" id="guide862" /><sodipodi:guide position="1000,0" orientation="0,-1000" id="guide864" /><sodipodi:guide position="0,0" orientation="-1000,0" id="guide866" /><sodipodi:guide position="74.483776,458.70206" orientation="1,0" id="guide863" /></sodipodi:namedview>
 <svg:defs id="defs4"><inkscape:path-effect effect="spiro" id="path-effect865" is_visible="true" lpeversion="1" /><inkscape:path-effect effect="fillet_chamfer" id="path-effect861" is_visible="true" lpeversion="1" satellites_param="F,0,0,1,0,7.7815187,0,1 @ F,0,0,1,0,16.824442,0,1 @ F,0,0,1,0,0,0,1 @ F,0,0,1,0,11.189945,0,1 @ F,0,0,1,0,0,0,1 @ F,0,0,1,0,17.525409,0,1 @ F,0,0,1,0,0,0,1" unit="px" method="auto" mode="F" radius="0" chamfer_steps="1" flexible="false" use_knot_distance="true" apply_no_radius="true" apply_with_radius="true" only_selected="true" hide_knots="false" /><inkscape:path-effect effect="spiro" id="path-effect863" is_visible="true" lpeversion="1" /><inkscape:path-effect effect="spiro" id="path-effect873" is_visible="true" lpeversion="1" /><inkscape:path-effect effect="spiro" id="path-effect859" is_visible="true" lpeversion="1" /><inkscape:path-effect effect="spiro" id="path-effect862" is_visible="true" lpeversion="1" /><inkscape:path-effect effect="spiro" id="path-effect1521" is_visible="true" lpeversion="1" /><inkscape:path-effect effect="spiro" id="path-effect858" is_visible="true" lpeversion="1" /><inkscape:path-effect effect="spiro" id="path-effect854" is_visible="true" lpeversion="1" />
  <svg:style type="text/css" id="style2">
   
    .fil0 {fill:#EF7F1A;fill-rule:nonzero}
   
  </svg:style>
 <inkscape:path-effect effect="spiro" id="path-effect1214" is_visible="true" lpeversion="1" /><inkscape:path-effect effect="spiro" id="path-effect1195" is_visible="true" lpeversion="1" /><inkscape:path-effect effect="spiro" id="path-effect992" is_visible="true" lpeversion="1" /><inkscape:path-effect effect="spiro" id="path-effect287" is_visible="true" lpeversion="1" /><inkscape:path-effect effect="spiro" id="path-effect1032" is_visible="true" lpeversion="1" /><inkscape:path-effect effect="spiro" id="path-effect1218" is_visible="true" lpeversion="1" /><inkscape:path-effect effect="spiro" id="path-effect309" is_visible="true" lpeversion="1" /><inkscape:path-effect effect="spiro" id="path-effect1176" is_visible="true" lpeversion="1" /><inkscape:path-effect effect="spiro" id="path-effect1026" is_visible="true" lpeversion="1" /><inkscape:path-effect effect="spiro" id="path-effect1030" is_visible="true" lpeversion="1" /></svg:defs>
 
<svg:g id="path859"><svg:path style="color:#000000;clip-rule:nonzero;fill:#1a5fb4;fill-rule:nonzero;stroke-width:60px;stroke-linecap:round;stroke-linejoin:round;-inkscape-stroke:none;paint-order:stroke fill markers;shape-rendering:auto" d="m 150.67699,718.85165 c 0,21.05171 -6.99059,42.29051 -20.6802,58.28329 -13.68962,15.99279 -34.213463,26.32141 -55.265177,26.32141 -21.051715,0 -41.575562,-10.32862 -55.265177,-26.32141 -13.6896154,-15.99278 -20.6802028,-37.23158 -20.680204,-58.28329 -1.2e-6,-21.05172 6.990585,-42.29052 20.6802,-58.2833 13.689616,-15.99279 34.213465,-26.32141 55.265181,-26.32141 21.051716,0 41.575567,10.32862 55.265177,26.32141 13.68962,15.99279 20.6802,37.23158 20.6802,58.2833 z" id="path4148" /></svg:g><svg:g id="path861"><svg:path style="color:#000000;clip-rule:nonzero;fill:#1a5fb4;fill-rule:nonzero;stroke-linecap:round;stroke-linejoin:round;-inkscape-stroke:none;shape-rendering:auto" d="m 152.1582,73.363281 c -3.30737,0.0098 -6.46464,0.378432 -9.30859,1.011719 L 5.8242187,104.88672 c -19.9679007,4.44643 -33.3642507,27.55457 -27.5605467,47 9.0709,30.39223 16.2545771,61.35231 21.4941405,92.63281 16.5983195,99.09294 13.4238905,201.60768 -9.1992188,299.51367 -2.7589917,11.94009 -0.7063817,27.1412 8.99218755,38.08008 C 9.2493509,593.05216 24.417762,596.9655 36.710937,595.45312 l 36.878907,-4.5371 45.535156,-5.60352 c 22.225,-2.73424 38.50638,-23.87938 35.78906,-45.91211 -1.05589,-8.56149 -2.00222,-17.13514 -2.83984,-25.7207 -12.72425,-130.42289 0.13395,-263.43429 37.53711,-389.03321 3.30493,-11.09788 2.91596,-27.313814 -8.04102,-39.203121 -8.21773,-8.91698 -19.49,-12.109609 -29.41211,-12.080078 z M 122.99023,140.26562 C 90.498582,263.57013 79.972295,392.55895 92.357422,519.50586 c 0.277876,2.84822 0.640825,5.6873 0.941406,8.5332 l -27.035156,3.32617 -11.982422,1.47461 C 73.788249,434.77189 75.458471,333.26191 58.933594,234.60742 54.627447,208.89947 49.086817,183.40356 42.373047,158.21875 Z" id="path4154" /></svg:g></svg:svg>
